!!!COM: Music21
!!!OTL: barndance_Filippo-Goes-To-Hospital
!!!OMV: barndance_Filippo-Goes-To-Hospital
**kern
*clefG2
*k[f#c#]
*D:
*M4/4
=1
8aL
8ddJ
8ddL
8eeJ
8ff#L
8ddJ
8eeL
8ff#J
=
8eeL
8aJ
4a
8aaL
8ggJ
8ff#L
8eeJ
=
8eeL
8ddJ
8ddL
8bJ
8aL
8bJ
8ddL
8eeJ
=
16ff#LL
16eeJ
8ddJ
8eeL
8ff#J
8eeL
8aJ
16aLL
16bJ
8cc#J
=
4dd
8ddL
8eeJ
8ff#L
8ddJ
8eeL
8ff#J
!!linebreak:original
=
8eeL
8aJ
4a
8aaL
8ggJ
8ff#L
8eeJ
=
8eeL
8ddJ
8ddL
8bJ
8aL
8bJ
8ddL
8eeJ
=
16ff#LL
16eeJ
8ddJ
8eeL
8ff#J
8eeL
8ddJ
8cc#L
8eeJ
=
8ddL
8ff#J
4ff#
8aaL
8ff#J
8eeL
8ddJ
=
8eeL
8ddJ
16cc#LL
16ddJ
8eeJ
8aL
8eeJ
8f#L
8aJ
!!linebreak:original
=
8ddL
8ff#J
4ff#
8aaL
8ff#J
8eeL
8ddJ
=
4ee
16aLL
16ddJ
8eeJ
4bb
8aaL
8ff#J
=
8ddL
8ff#J
4ff#
8aaL
8ff#J
8eeL
8ddJ
=
8eeL
8ddJ
16cc#LL
16ddJ
8eeJ
4a
16dLL
16f#J
8aJ
=
4b
8bL
8aJ
8bL
8ddJ
8eeL
8ddJ
!!linebreak:original
=
8ff#L
8eeJ
8eeL
8ddJ
8eeL
8ddJ
8ddL
8bJ
=
*-
